X: 249
T:Rake Maker's Jig
% Nottingham Music Database
S:Brian Jenkins, via Phil Rowe
M:6/8
K:G
dc|"G"B2B B^AB|D3 -DGB|"G"deB deB|"Am"c3 -ccB|A2A A^GA|
"D"F2F F2E|"D7"DFA de^A|"G"B3 -"D7"Bdc|"G"B2B B^AB|D3 -DGA|"G"B2B "G7"Bcd|
"C"e3 -eef|"C#d"ge^c ^Agf|"G"edB Gfe|"A"dDc "D7"B2A|"G"G3 -"B7"GGF||
"Em"E2E G2A|B3 -B2B|"Am"c2c "D7"cdA|"G"B3 -B2B|"Am"A2A "D"ABc|"Bm"d2B "Em"G2B|
"A"A2g f2e|"D"d3 -"D7"ddc|"G"B2B B^AB|"G"D3 -DGB|"G"deB deB|
"Am"c3 -ccB|"D7"A2A ABc|"Bm"d2B "Em"G2D|"Am"E2c "D7"B2A|"G"G3 -Gzz||


